X: 2031
T: MISS ROSE
R: Strathspey.
%R: strathspey.
B: James Kerr "Merry Melodies" v.2 p.6 #31
Z: 2016 John Chambers <jc:trillian.mit.edu>
M: C
L: 1/8
K: A
ue |\
vA/A/A uc>uA vd>vBue>uc | (3def (3edc d<BB>uc |\
A/A/A c>A d>Be>c | d/c/B/A/ G>uB A/A/A Aue |\
vA/A/A uc>uA vd>vBue>uc |
(3def (3edc d<BB>uc |\
A/A/A c>A d>Be>c | d/c/B/A/ G>uB A/A/A A |]\
ue |\
va>vbua>ub e<cc>uA | (3def (3edc d<BB>e |
a>ba>b e<cc>uA | d/c/B/A/ G>uB A/A/A uA>ue |\
a<ba>b e<cc>A | (3def (3edc d<BB>uc |\
(3AEA (3cAc (3dBd (3ece | (3fdf (3geg a<A A |]

%%sep 1 1 500
%%sep 1 1 500

